**kern
*part1
*staff1
*clefG2
*k[b-e-a-]
*M2/4
*>A
=1-
8gL
16ddL
16ddJJ
16ddLL
16dd
16dd
16ddJJ
=2
(>16ddLL
16ee-)
(>16ee-
16ddJJ)
(>16ddLL
16cc)
(>16cc
16bnJJ)
=3
8.ccL
16bnJk
16ccLL
16ee-
16dd
16ccJJ
=4
16ccLL
16ddJJ
4bn
16a-LL
16gJJ
=5
8gL
16ddL
16ddJJ
16ddLL
16dd
16dd
16ddJJ
=6
(>16ddLL
16ee-)
(>16ee-
16ddJJ)
(>16ddLL
16cc)
(>16cc
16bnJJ)
=7
(>8.ccL
16bnJk
16ccLL)
(>16ee-
16dd)
16ccJJ
=8
(>16ccLL
16bnJJ)
4b
16a-LL
16gJJ
=9!|:
*>B
8.ccL
16bnJk
(<16bLL
16a-)
(<16a-
16gJJ)
=10
4.bn
16a-LL
16gJJ
=11
8.ccL
16bnJk
(<16bLL
16a-)
(<16a-
16gJJ)
=12
8gL
8qff#X/
8ggJ
8ggL
8ggJ
=13:|!
4g
!LO:TX:B:t=Fine
4gg
=14!|:
*>C
4.ee-
16ffLL
16ggJJ
=15
4.ee-
16ffLL
16ggJJ
=16
8ee-L
16ffL
16ggJJ
8ee-L
16ffL
16ggJJ
=17
4ee-
8r
8gg
=18
(>16ggLL
16ff#X)
(>16ff#
16ee-JJ)
(>16ee-LL
16dd)
(>16dd
16ccJJ)
=19
4.ee-
8gg
=20
(>16ggLL
16ff#X)
(>16ff#
16ee-JJ)
(>16ee-LL
16dd)
(>16dd
16ccJJ)
=21
2cc
=22:|!
4.cc
!LO:TX:B:t=D.S. al Fine
8g
==
*-
!!!RDF**kern: > = above
!!!RDF**kern: < = below
!!!! MATCHES : 0
